**kern	**kern	**dynam
*part1	*part1	*part1
*staff2	*staff1	*
*I"Piano	*	*
*clefF4	*clefG2	*
*k[]	*k[]	*
=1	=1	=1
1AAA_ 1AA_	8aL	.
.	8g	.
.	8a	.
.	8gJ	.
.	8eL	.
.	8d	.
.	8e	.
.	8dJ	.
*	*clefF4	*
=	=	=
1AAA_ 1AA_	8AL	.
.	8G	.
.	8A	.
.	8GJ	.
.	8EL	.
.	8D	.
.	8E	.
.	8DJ	.
=	=	=
1r	8AAAL]< 8AA]<	.
.	(8GG<	.
.	8AA<	.
.	8GGJ<)	.
.	(8EEL<	.
.	8DD<	.
.	8EE<	.
.	8DDJ<))	.
*	*clefG2	*
=	=	=
!	!LO:TX:a:i:t=dim.	!
!	!LO:TX:a:i:t=rall.	!
(1AAA	1r	.
=	=	=
[1BBB-X	1r	.
=	=	=
(1BBB-X] 1DD	1r	[[
=	=	=
!	!LO:TX:b:i:t=lunga	!LO:DY:a
[1AAA;) [1EE	1r;	pp
=||	=||	=||
*-	*-	*-
!!!system-decoration: {(s1,s2)}
!!!RDF**kern: < = below
